X:69
T:ASLEEP2- Cauld Frosty Morning [I am asleep]
S:Scots Musical Museum #227
Q:1/4=120
M:3/4
K:F
C|C3/4D/4FF|F2F/ F/|G3/4A/4 B/A/ G/F/|FDC|C3/4D/4FF|\
A3/4B/4 cF|"tr"G3/2F/ G/A/|F2G/A/|Bc/B/ A/G/|
(AB/A/) G/F/|G/A/ B/A/ G/F/|FDC|\
C3/4D/4FF|A3/4B/4cf|"tr"G3/2F/ G/A/|F2||\
c/d/|_e3/2 f/ (e/f/)|{_e}d2c|ccf3/4g/4|\
fdc|"tr"(_e3/4d/4) (e/g/) f/e/|_ed (c/4d/4f/)|\
(B3/4d/4) (c/A/) (G/A/)|FDC|\
"tr"(_e3/4d/4) (e/f/) (e/f/)|(d/c/A/c/) (d/f/)|\
(c/d/) (A/c/) (G/A/)|FDC|C3/4D/4FF|(A3/4B/4)c(d/e/4f/4)|\
{A/}"tr"G3/2 F/ (G/A/)|F2|]
